X: 1 
T:Hand me down the tackle 
T:The pure drop 
T:Reidy Johnson's 
M:4/4 
R:Reel 
K:D 
:| dD (3DED FAAF|Agfd edBc|dD (3DED FAAF|G2EF GABc|dD (3DED FAAF| Agfd edBg|fdec dABA|GFEF GABc:|
d2fd AdfA|dfed cdeA|d2fd AdfA|BE (3EFE GABc |1 (3ded fd AdfA|dfed cdeg|fdec dABA|GFEF GABc :|2
a2 ab agef|gfef gbag|fdec dcBA| GFEF GABc|
